X: 3
P: Mongrel Horde
C: Jonathan Finger (2005)
M: 2/4
L: 1/16
K: Em
|: "Em" eBB fBB gB | aB gB fB eB| eBB fBB gB | aB gB "B" f4|
|  "Em "eBB fBB gB | aB gB fB eB| .e2Bc2 BAG| "B" (GA) (FG) "Em" E4 :|
|: "Em" .e2Bc2 BAB| EGBe g2 "B7" f2| "Em" .e2Bc2 BAB| "Am" aA gA "B7" f4 |
| ."Em" e2Bc2 BAB| EGBe g2 "B7" f2| "Em" .e2Bc2 BAB| "B7" (GA) (FG) "Em" E4:|
